img/icon-snowflake-1.svg

<svg xmlns="http://www.w3.org/2000/svg" width="73.31" height="73.12"><style>.st0{fill:#f7f8fb}</style><path class="st0" d="M40.78 38.31h7.14c-.29 1.86-1.03 3.58-2.1 5.03zm-2.47 9.53v-7.06l5.02 5.02a11.302 11.302 0 0 1-5.02 2.04m-3.5-7.06v7.03c-1.83-.3-3.51-1.03-4.94-2.09zm-9.42-2.47h6.94l-4.92 4.92c-1.04-1.43-1.74-3.1-2.02-4.92m6.94-3.5h-6.94c.28-1.82.98-3.49 2.02-4.92zm2.48-9.51v7.03l-4.94-4.93a11.38 11.38 0 0 1 4.94-2.1m3.5 7.03v-7.06c1.85.28 3.56.99 5.02 2.04zm9.61 2.48h-7.14l5.04-5.03c1.07 1.45 1.81 3.16 2.1 5.03m18.13 3.5h5.32c.97 0 1.75-.78 1.75-1.75s-.78-1.75-1.75-1.75h-5.54l6.91-6.23c.71-.65.77-1.76.12-2.48-.65-.71-1.75-.77-2.47-.12l-9.74 8.79c-.03.01-.07.02-.1.04h-4.63l6.9-6.23c.72-.65.77-1.76.13-2.48-.65-.71-1.76-.77-2.48-.12l-9.1 8.22a14.85 14.85 0 0 0-3.06-6.92l5.73-5.73c.68-.68.68-1.79 0-2.47-.68-.69-1.79-.69-2.47 0l-5.75 5.74c-1.96-1.54-4.3-2.58-6.87-2.98l8.12-8.99a1.752 1.752 0 1 0-2.6-2.35l-6.16 6.83v-4.69l8.76-9.71c.65-.72.59-1.82-.12-2.47-.72-.64-1.83-.58-2.48.12l-6.16 6.83V1.75c0-.97-.79-1.75-1.75-1.75-.97 0-1.75.78-1.75 1.75v5.6L28.7.58a1.77 1.77 0 0 0-2.47-.12c-.72.65-.78 1.75-.13 2.47l8.71 9.64v4.7L28.7 10.5c-.65-.71-1.75-.77-2.47-.12-.72.64-.78 1.75-.13 2.47l8.14 9c-2.57.43-4.92 1.49-6.87 3.05l-5.82-5.82a1.75 1.75 0 0 0-2.48 2.47l5.84 5.84a14.796 14.796 0 0 0-2.82 5.99l-8.2-7.4c-.71-.65-1.82-.59-2.47.12-.64.72-.59 1.83.13 2.48l6.9 6.23h-4.63a.69.69 0 0 0-.1-.04l-9.74-8.79c-.72-.65-1.82-.59-2.47.12-.65.72-.59 1.83.12 2.48l6.91 6.23h-6.8c-.96 0-1.74.78-1.74 1.75s.78 1.75 1.74 1.75h6.58l-6.69 6.04c-.71.65-.77 1.75-.12 2.47a1.747 1.747 0 0 0 2.47.13l9.56-8.64h4.7l-6.69 6.04c-.72.65-.77 1.75-.13 2.47.35.38.82.58 1.3.58.42 0 .84-.15 1.17-.45l8.16-7.36a14.77 14.77 0 0 0 2.86 6.14l-5.84 5.84a1.75 1.75 0 0 0 0 2.47c.34.35.79.52 1.24.52.45 0 .9-.17 1.24-.52l5.82-5.82c1.89 1.5 4.15 2.56 6.62 3l-7.89 8.74c-.65.71-.59 1.82.13 2.47.33.3.75.45 1.17.45.48 0 .95-.19 1.3-.58l6.11-6.76v4.69l-8.71 9.64c-.65.72-.59 1.83.13 2.47.33.31.75.46 1.17.46.48 0 .95-.2 1.3-.58l6.11-6.76v5.91c0 .97.78 1.75 1.75 1.75.96 0 1.75-.78 1.75-1.75v-5.98l6.16 6.83c.35.38.83.58 1.3.58.42 0 .84-.15 1.18-.46.71-.64.77-1.75.12-2.47l-8.76-9.7v-4.7l6.16 6.83c.35.39.83.58 1.3.58.42 0 .84-.15 1.18-.45.71-.65.77-1.76.12-2.47l-7.87-8.72c2.47-.43 4.73-1.46 6.62-2.94l5.75 5.74c.34.34.79.52 1.23.52.45 0 .9-.18 1.24-.52.68-.68.68-1.79 0-2.47l-5.73-5.73c1.6-2.01 2.69-4.44 3.08-7.09l9.08 8.2c.34.3.76.45 1.18.45.47 0 .95-.2 1.3-.58.64-.72.59-1.82-.13-2.47l-6.69-6.04h4.69l9.57 8.64a1.747 1.747 0 0 0 2.47-.13c.65-.72.59-1.82-.12-2.47z"/><path class="st0" d="M12.03 8.65a3.67 3.67 0 0 1 3.66 3.67c0 2.02-1.64 3.66-3.66 3.66a3.67 3.67 0 0 1-3.67-3.66c0-2.02 1.65-3.67 3.67-3.67m0 10.83c3.95 0 7.16-3.21 7.16-7.16s-3.21-7.17-7.16-7.17-7.17 3.22-7.17 7.17c0 3.95 3.22 7.16 7.17 7.16M61.28 8.65c2.02 0 3.67 1.65 3.67 3.67a3.67 3.67 0 0 1-7.34 0c0-2.02 1.65-3.67 3.67-3.67m0 10.83c3.95 0 7.17-3.21 7.17-7.16s-3.22-7.17-7.17-7.17c-3.95 0-7.17 3.22-7.17 7.17 0 3.95 3.22 7.16 7.17 7.16M12.03 64.46a3.67 3.67 0 0 1-3.67-3.66c0-2.02 1.65-3.67 3.67-3.67a3.67 3.67 0 0 1 3.66 3.67c0 2.02-1.64 3.66-3.66 3.66m0-10.83c-3.95 0-7.17 3.22-7.17 7.17 0 3.95 3.22 7.16 7.17 7.16 3.95 0 7.16-3.21 7.16-7.16s-3.21-7.17-7.16-7.17m49.25 10.83a3.67 3.67 0 0 1-3.67-3.66c0-2.02 1.65-3.67 3.67-3.67s3.67 1.65 3.67 3.67a3.67 3.67 0 0 1-3.67 3.66m0-10.83c-3.95 0-7.17 3.22-7.17 7.17 0 3.95 3.22 7.16 7.17 7.16 3.95 0 7.17-3.21 7.17-7.16s-3.22-7.17-7.17-7.17"/></svg>

<svg xmlns="http://www.w3.org/2000/svg" width="73.31" height="73.12" viewBox="0 0 73.31 73.12">
	<style type="text/css">
		.st0{fill:#f7f8fb;}
	</style>
	<path class="st0" d="M40.78,38.31L47.92,38.31C47.63,40.17 46.89,41.89 45.82,43.34ZM38.31,47.84L38.31,40.78L43.33,45.8C41.87,46.86 40.16,47.57 38.31,47.84M34.81,40.78L34.81,47.81C32.98,47.51 31.3,46.78 29.87,45.72ZM25.39,38.31L32.33,38.31L27.41,43.23C26.37,41.8 25.67,40.13 25.39,38.31M32.33,34.81L25.39,34.81C25.67,32.99 26.37,31.32 27.41,29.89ZM34.81,25.3L34.81,32.33L29.87,27.4C31.3,26.34 32.98,25.6 34.81,25.3M38.31,32.33L38.31,25.27C40.16,25.55 41.87,26.26 43.33,27.31ZM47.92,34.81L40.78,34.81L45.82,29.78C46.89,31.23 47.63,32.94 47.92,34.81M66.05,38.31L71.37,38.31C72.34,38.31 73.12,37.53 73.12,36.56C73.12,35.59 72.34,34.81 71.37,34.81L65.83,34.81L72.74,28.58C73.45,27.93 73.51,26.82 72.86,26.1C72.21,25.39 71.11,25.33 70.39,25.98L60.65,34.77C60.62,34.78 60.58,34.79 60.55,34.81L55.92,34.81L62.82,28.58C63.54,27.93 63.59,26.82 62.95,26.1C62.3,25.39 61.19,25.33 60.47,25.98L51.37,34.2C50.95,31.61 49.88,29.24 48.31,27.28L54.04,21.55C54.72,20.87 54.72,19.76 54.04,19.08C53.36,18.39 52.25,18.39 51.57,19.08L45.82,24.82C43.86,23.28 41.52,22.24 38.95,21.84L47.07,12.85C47.72,12.13 47.66,11.02 46.95,10.38C46.23,9.73 45.12,9.78 44.47,10.5L38.31,17.33L38.31,12.64L47.07,2.93C47.72,2.21 47.66,1.11 46.95,0.46C46.23,-0.18 45.12,-0.12 44.47,0.58L38.31,7.41L38.31,1.75C38.31,0.78 37.52,0 36.56,0C35.59,0 34.81,0.78 34.81,1.75L34.81,7.35L28.7,0.58C28.05,-0.12 26.95,-0.18 26.23,0.46C25.51,1.11 25.45,2.21 26.1,2.93L34.81,12.57L34.81,17.27L28.7,10.5C28.05,9.79 26.95,9.73 26.23,10.38C25.51,11.02 25.45,12.13 26.1,12.85L34.24,21.85C31.67,22.28 29.32,23.34 27.37,24.9L21.55,19.08C20.86,18.39 19.76,18.39 19.07,19.08C18.39,19.76 18.39,20.87 19.07,21.55L24.91,27.39C23.56,29.12 22.57,31.15 22.09,33.38L13.89,25.98C13.18,25.33 12.07,25.39 11.42,26.1C10.78,26.82 10.83,27.93 11.55,28.58L18.45,34.81L13.82,34.81C13.78,34.79 13.75,34.78 13.72,34.77L3.98,25.98C3.26,25.33 2.16,25.39 1.51,26.1C0.86,26.82 0.92,27.93 1.63,28.58L8.54,34.81L1.74,34.81C0.78,34.81 0,35.59 0,36.56C0,37.53 0.78,38.31 1.74,38.31L8.32,38.31L1.63,44.35C0.92,45 0.86,46.1 1.51,46.82C1.85,47.2 2.33,47.4 2.81,47.4C3.22,47.4 3.64,47.25 3.98,46.95L13.54,38.31L18.24,38.31L11.55,44.35C10.83,45 10.78,46.1 11.42,46.82C11.77,47.2 12.24,47.4 12.72,47.4C13.14,47.4 13.56,47.25 13.89,46.95L22.05,39.59C22.52,41.87 23.52,43.96 24.91,45.73L19.07,51.57C18.39,52.25 18.39,53.36 19.07,54.04C19.41,54.39 19.86,54.56 20.31,54.56C20.76,54.56 21.21,54.39 21.55,54.04L27.37,48.22C29.26,49.72 31.52,50.78 33.99,51.22L26.1,59.96C25.45,60.67 25.51,61.78 26.23,62.43C26.56,62.73 26.98,62.88 27.4,62.88C27.88,62.88 28.35,62.69 28.7,62.3L34.81,55.54L34.81,60.23L26.1,69.87C25.45,70.59 25.51,71.7 26.23,72.34C26.56,72.65 26.98,72.8 27.4,72.8C27.88,72.8 28.35,72.6 28.7,72.22L34.81,65.46L34.81,71.37C34.81,72.34 35.59,73.12 36.56,73.12C37.52,73.12 38.31,72.34 38.31,71.37L38.31,65.39L44.47,72.22C44.82,72.6 45.3,72.8 45.77,72.8C46.19,72.8 46.61,72.65 46.95,72.34C47.66,71.7 47.72,70.59 47.07,69.87L38.31,60.17L38.31,55.47L44.47,62.3C44.82,62.69 45.3,62.88 45.77,62.88C46.19,62.88 46.61,62.73 46.95,62.43C47.66,61.78 47.72,60.67 47.07,59.96L39.2,51.24C41.67,50.81 43.93,49.78 45.82,48.3L51.57,54.04C51.91,54.38 52.36,54.56 52.8,54.56C53.25,54.56 53.7,54.38 54.04,54.04C54.72,53.36 54.72,52.25 54.04,51.57L48.31,45.84C49.91,43.83 51,41.4 51.39,38.75L60.47,46.95C60.81,47.25 61.23,47.4 61.65,47.4C62.12,47.4 62.6,47.2 62.95,46.82C63.59,46.1 63.54,45 62.82,44.35L56.13,38.31L60.82,38.31L70.39,46.95C70.72,47.25 71.14,47.4 71.56,47.4C72.04,47.4 72.52,47.2 72.86,46.82C73.51,46.1 73.45,45 72.74,44.35Z"></path>
	<path class="st0" d="M12.03,8.65C14.05,8.65 15.69,10.3 15.69,12.32C15.69,14.34 14.05,15.98 12.03,15.98C10.01,15.98 8.36,14.34 8.36,12.32C8.36,10.3 10.01,8.65 12.03,8.65M12.03,19.48C15.98,19.48 19.19,16.27 19.19,12.32C19.19,8.37 15.98,5.15 12.03,5.15C8.08,5.15 4.86,8.37 4.86,12.32C4.86,16.27 8.08,19.48 12.03,19.48"></path>
	<path class="st0" d="M61.28,8.65C63.3,8.65 64.95,10.3 64.95,12.32C64.95,14.34 63.3,15.98 61.28,15.98C59.26,15.98 57.61,14.34 57.61,12.32C57.61,10.3 59.26,8.65 61.28,8.65M61.28,19.48C65.23,19.48 68.45,16.27 68.45,12.32C68.45,8.37 65.23,5.15 61.28,5.15C57.33,5.15 54.11,8.37 54.11,12.32C54.11,16.27 57.33,19.48 61.28,19.48"></path>
	<path class="st0" d="M12.03,64.46C10.01,64.46 8.36,62.82 8.36,60.8C8.36,58.78 10.01,57.13 12.03,57.13C14.05,57.13 15.69,58.78 15.69,60.8C15.69,62.82 14.05,64.46 12.03,64.46M12.03,53.63C8.08,53.63 4.86,56.85 4.86,60.8C4.86,64.75 8.08,67.96 12.03,67.96C15.98,67.96 19.19,64.75 19.19,60.8C19.19,56.85 15.98,53.63 12.03,53.63"></path>
	<path class="st0" d="M61.28,64.46C59.26,64.46 57.61,62.82 57.61,60.8C57.61,58.78 59.26,57.13 61.28,57.13C63.3,57.13 64.95,58.78 64.95,60.8C64.95,62.82 63.3,64.46 61.28,64.46M61.28,53.63C57.33,53.63 54.11,56.85 54.11,60.8C54.11,64.75 57.33,67.96 61.28,67.96C65.23,67.96 68.45,64.75 68.45,60.8C68.45,56.85 65.23,53.63 61.28,53.63"></path>
</svg>
